packages/credential/logos/dedust-white.svg

<svg width="24" height="24" viewBox="0 0 24 24" fill="none" xmlns="http://www.w3.org/2000/svg">
    <path d="M12 12.2476L14 11.0917V13.4036L12 14.5596V12.2476Z" fill="#CCCCCC" />
    <path d="M12 19.1836L14 18.0276V20.3395L12 21.4955V19.1836Z" fill="#DFDFDF" />
    <path d="M12 16.8717L14 15.7157V18.0276L12 19.1836V16.8717Z" fill="#D1D1D1" />
    <path d="M12 14.5596L14 13.4037V15.7156L12 16.8716V14.5596Z" fill="#E3E3E3" />
    <path d="M18 8.77986L20 7.6239V9.93583L18 11.0918V8.77986Z" fill="#C9C9C9" />
    <path d="M18 15.7155L20 14.5596V16.8715L18 18.0275V15.7155Z" fill="#C9C9C9" />
    <path d="M18 13.4036L20 12.2477V14.5596L18 15.7156V13.4036Z" fill="#CCCCCC" />
    <path
        d="M18 11.0917L20 9.93575V12.2477L18 13.4036V11.0917ZM16 9.93575L18 8.77979V11.0917L16 12.2477V9.93575Z"
        fill="#E6E6E6" />
    <path d="M16 16.8717L18 15.7157V18.0276L16 19.1836V16.8717Z" fill="#D6D6D6" />
    <path d="M16 14.5596L18 13.4037V15.7156L16 16.8716V14.5596Z" fill="#C9C9C9" />
    <path d="M16 12.2476L18 11.0917V13.4036L16 14.5596V12.2476Z" fill="#DBDBDB" />
    <path d="M14 11.0918L16 9.93579V12.2477L14 13.4037V11.0918Z" fill="#DEDEDE" />
    <path d="M14 18.0277L16 16.8717V19.1836L14 20.3396V18.0277Z" fill="#C0C0C0" />
    <path d="M14 15.7155L16 14.5596V16.8715L14 18.0275V15.7155Z" fill="#D9D9D9" />
    <path d="M14 13.4036L16 12.2477V14.5596L14 15.7156V13.4036Z" fill="#CCCCCC" />
    <path
        d="M4.00049 7.6239L6.00049 8.77986V11.0918L4.00049 9.93583V7.6239ZM4.00049 14.5597L6.00049 15.7156V18.0276L4.00049 16.8716V14.5597Z"
        fill="#FCFCFC" />
    <path d="M4.00049 12.2477L6.00049 13.4036V15.7156L4.00049 14.5596V12.2477Z" fill="#F1F1F1" />
    <path d="M4.00049 9.93579L6.00049 11.0918V13.4037L4.00049 12.2477V9.93579Z" fill="#F9F9F9" />
    <path d="M10.0005 11.0917L12.0005 12.2476V14.5596L10.0005 13.4036V11.0917Z" fill="#FCFCFC" />
    <path d="M10.0005 18.0276L12.0005 19.1836V21.4955L10.0005 20.3395V18.0276Z" fill="#F1F1F1" />
    <path d="M10.0005 15.7157L12.0005 16.8717V19.1836L10.0005 18.0276V15.7157Z" fill="#F1F1F1" />
    <path
        d="M10.0005 13.4037L12.0005 14.5596V16.8716L10.0005 15.7156V13.4037ZM8.00049 9.93579L10.0005 11.0918V13.4037L8.00049 12.2477V9.93579Z"
        fill="#F1F1F1" />
    <path d="M8.00049 16.8717L10.0005 18.0277V20.3396L8.00049 19.1836V16.8717Z" fill="#FCFCFC" />
    <path d="M8.00049 14.5596L10.0005 15.7155V18.0275L8.00049 16.8715V14.5596Z" fill="#F9F9F9" />
    <path d="M8.00049 12.2477L10.0005 13.4036V15.7156L8.00049 14.5596V12.2477Z" fill="#F3F3F3" />
    <path d="M6.00049 8.77979L8.00049 9.93575V12.2477L6.00049 11.0917V8.77979Z" fill="#F1F1F1" />
    <path d="M6.00049 15.7157L8.00049 16.8717V19.1836L6.00049 18.0276V15.7157Z" fill="#F3F3F3" />
    <path d="M6.00049 13.4037L8.00049 14.5596V16.8716L6.00049 15.7156V13.4037Z" fill="#F1F1F1" />
    <path d="M6.00049 11.0917L8.00049 12.2476V14.5596L6.00049 13.4036V11.0917Z" fill="#FCFCFC" />
    <path
        d="M12 3L14 4.15596L12 5.31193L10 4.15596L12 3ZM6 6.46789L8 7.62385L6 8.77982L4 7.62385L6 6.46789Z"
        fill="#FDFDFD" />
    <path d="M8 5.31189L10 6.46785L8 7.62382L6 6.46785L8 5.31189Z" fill="#FEFEFE" />
    <path
        d="M10 4.15588L12 5.31185L10 6.46781L8 5.31185L10 4.15588ZM18 6.46781L20 7.62377L18 8.77974L16 7.62377L18 6.46781Z"
        fill="#F0F0F0" />
    <path d="M12 9.93579L14 11.0918L12 12.2477L10 11.0918L12 9.93579Z" fill="#FEFEFE" />
    <path d="M14 8.77979L16 9.93575L14 11.0917L12 9.93575L14 8.77979Z" fill="#F0F0F0" />
    <path d="M16 7.6239L18 8.77986L16 9.93583L14 8.77986L16 7.6239Z" fill="#FEFEFE" />
    <path d="M16 5.31189L18 6.46785L16 7.62382L14 6.46785L16 5.31189Z" fill="white" />
    <path d="M10 8.77979L12 9.93575L10 11.0917L8 9.93575L10 8.77979Z" fill="#F0F0F0" />
    <path d="M12 7.6239L14 8.77986L12 9.93583L10 8.77986L12 7.6239Z" fill="white" />
    <path d="M14 6.46777L16 7.62374L14 8.7797L12 7.62374L14 6.46777Z" fill="#F0F0F0" />
    <path d="M14 4.15588L16 5.31185L14 6.46781L12 5.31185L14 4.15588Z" fill="#FEFEFE" />
    <path d="M8 7.6239L10 8.77986L8 9.93583L6 8.77986L8 7.6239Z" fill="#FDFDFD" />
    <path d="M10 6.46777L12 7.62374L10 8.7797L8 7.62374L10 6.46777Z" fill="#FEFEFE" />
    <path d="M12 5.31189L14 6.46785L12 7.62382L10 6.46785L12 5.31189Z" fill="#FDFDFD" />
</svg>

<svg width="24" height="24" fill="none" xmlns="http://www.w3.org/2000/svg"><path d="m12 12.248 2-1.156v2.312l-2 1.156v-2.312z" fill="#CCC"/><path d="m12 19.184 2-1.156v2.312l-2 1.155v-2.311z" fill="#DFDFDF"/><path d="m12 16.872 2-1.156v2.312l-2 1.156v-2.312z" fill="#D1D1D1"/><path d="m12 14.56 2-1.156v2.312l-2 1.156V14.56z" fill="#E3E3E3"/><path d="m18 8.78 2-1.156v2.312l-2 1.156V8.78zM18 15.716l2-1.156v2.312l-2 1.155v-2.312z" fill="#C9C9C9"/><path d="m18 13.404 2-1.156v2.312l-2 1.156v-2.312z" fill="#CCC"/><path d="m18 11.092 2-1.156v2.312l-2 1.156v-2.312zm-2-1.156 2-1.156v2.312l-2 1.156V9.936z" fill="#E6E6E6"/><path d="m16 16.872 2-1.156v2.312l-2 1.156v-2.312z" fill="#D6D6D6"/><path d="m16 14.56 2-1.156v2.312l-2 1.156V14.56z" fill="#C9C9C9"/><path d="m16 12.248 2-1.156v2.312l-2 1.156v-2.312z" fill="#DBDBDB"/><path d="m14 11.092 2-1.156v2.312l-2 1.156v-2.312z" fill="#DEDEDE"/><path d="m14 18.028 2-1.156v2.312l-2 1.156v-2.312z" fill="silver"/><path d="m14 15.716 2-1.156v2.312l-2 1.155v-2.312z" fill="#D9D9D9"/><path d="m14 13.404 2-1.156v2.312l-2 1.156v-2.312z" fill="#CCC"/><path d="M4 7.624 6 8.78v2.312L4 9.936V7.624zm0 6.936 2 1.156v2.312l-2-1.156V14.56z" fill="#FCFCFC"/><path d="m4 12.248 2 1.156v2.312L4 14.56v-2.312z" fill="#F1F1F1"/><path d="m4 9.936 2 1.156v2.312l-2-1.156V9.936z" fill="#F9F9F9"/><path d="m10 11.092 2 1.156v2.312l-2-1.156v-2.312z" fill="#FCFCFC"/><path d="m10 18.028 2 1.156v2.311l-2-1.155v-2.312z" fill="#F1F1F1"/><path d="m10 15.716 2 1.156v2.312l-2-1.156v-2.312z" fill="#F1F1F1"/><path d="m10 13.404 2 1.156v2.312l-2-1.156v-2.312zM8 9.936l2 1.156v2.312l-2-1.156V9.936z" fill="#F1F1F1"/><path d="m8 16.872 2 1.156v2.312l-2-1.156v-2.312z" fill="#FCFCFC"/><path d="m8 14.56 2 1.155v2.313l-2-1.156V14.56z" fill="#F9F9F9"/><path d="m8 12.248 2 1.156v2.312L8 14.56v-2.312z" fill="#F3F3F3"/><path d="m6 8.78 2 1.156v2.312l-2-1.156V8.78z" fill="#F1F1F1"/><path d="m6 15.716 2 1.156v2.312l-2-1.156v-2.312z" fill="#F3F3F3"/><path d="m6 13.404 2 1.156v2.312l-2-1.156v-2.312z" fill="#F1F1F1"/><path d="m6 11.092 2 1.156v2.312l-2-1.156v-2.312z" fill="#FCFCFC"/><path d="m12 3 2 1.156-2 1.156-2-1.156L12 3zM6 6.468l2 1.156L6 8.78 4 7.624l2-1.156z" fill="#FDFDFD"/><path d="m8 5.312 2 1.156-2 1.156-2-1.156 2-1.156z" fill="#FEFEFE"/><path d="m10 4.156 2 1.156-2 1.156-2-1.156 2-1.156zm8 2.312 2 1.156-2 1.156-2-1.156 2-1.156z" fill="#F0F0F0"/><path d="m12 9.936 2 1.156-2 1.156-2-1.156 2-1.156z" fill="#FEFEFE"/><path d="m14 8.78 2 1.156-2 1.156-2-1.156 2-1.156z" fill="#F0F0F0"/><path d="m16 7.624 2 1.156-2 1.156-2-1.156 2-1.156z" fill="#FEFEFE"/><path d="m16 5.312 2 1.156-2 1.156-2-1.156 2-1.156z" fill="#fff"/><path d="m10 8.78 2 1.156-2 1.156-2-1.156 2-1.156z" fill="#F0F0F0"/><path d="m12 7.624 2 1.156-2 1.156-2-1.156 2-1.156z" fill="#fff"/><path d="m14 6.468 2 1.156-2 1.156-2-1.156 2-1.156z" fill="#F0F0F0"/><path d="m14 4.156 2 1.156-2 1.156-2-1.156 2-1.156z" fill="#FEFEFE"/><path d="m8 7.624 2 1.156-2 1.156L6 8.78l2-1.156z" fill="#FDFDFD"/><path d="m10 6.468 2 1.156-2 1.156-2-1.156 2-1.156z" fill="#FEFEFE"/><path d="m12 5.312 2 1.156-2 1.156-2-1.156 2-1.156z" fill="#FDFDFD"/></svg>
